!!!COM:	Bach, Johann Sebastian
!!!CDT:	1685/02/21/-1750/07/28/
!!!OTL@@DE:	Alle Menschen m&uuml;ssen sterben
!!!SCT:	BWV 262
!!!PC#:	153
!!!hymn: Jakob Hintze (1622-1702)
!!!AGN:	chorale
**kern	**kern	**kern	**kern
*ICvox	*ICvox	*ICvox	*ICvox
*Ibass	*Itenor	*Ialto	*Isoprn
*I"Bass	*I"Tenor	*I"Alto	*I"Soprano
*>[A,A,B]	*>[A,A,B]	*>[A,A,B]	*>[A,A,B]
*>norep[A,B]	*>norep[A,B]	*>norep[A,B]	*>norep[A,B]
*>A	*>A	*>A	*>A
*	*oclefC4	*oclefC3	*oclefC1
*clefF4	*clefGv2	*clefG2	*clefG2
*k[f#c#]	*k[f#c#]	*k[f#c#]	*k[f#c#]
*D:	*D:	*D:	*D:
*M4/4	*M4/4	*M4/4	*M4/4
*met(c)	*met(c)	*met(c)	*met(c)
*MM100	*MM100	*MM100	*MM100
=1-	=1-	=1-	=1-
4D	4F#	4d	4a
4BB	8F#L	4d	4dd
.	8GJ	.	.
4FF#	4A	4d	4a
4GG	8GL	4d	4b
.	8F#J	.	.
=2	=2	=2	=2
4AA	8EL	4d	4.a
.	8DJ	.	.
4AA	4E	4c#	.
.	.	.	8g
4DD	4D	4d	4f#
4DD;	4D;	4d;	4f#;
=3	=3	=3	=3
4D	4F#	4d	4a
4D	4F#	8dL	4a
.	.	8c#J	.
4E	4G	8BL	4g
.	.	8c#J	.
4F#	4A	[4d	4f#
=4	=4	=4	=4
8GL	4B	4d]	4.e
8E	.	.	.
8A	8.AL	4c#	.
8AAJ	.	.	8d
.	16GJk	.	.
2D;	2F#;	2d;	2d;
=5:|!	=5:|!	=5:|!	=5:|!
*>B	*>B	*>B	*>B
4AA	4A	4c#	4e
4AA	4A	4c#	4e
4D	4A	4d	8f#L
.	.	.	8g#J
8F#L	4A	4c#	4a
8EJ	.	.	.
=6	=6	=6	=6
4D	4B	4f#	4.a
4E	4B	8eL	.
.	.	8dJ	8g#
2AA;	4A	4c#	4a
.	4A;	4c#;	4a;
=7	=7	=7	=7
2E	4.GnX	8eL	4.b
.	.	8f#J	.
.	.	4gnX	.
.	8A	.	8cc#
8BBL	[2B	4f#	4dd
8C#	.	.	.
8D	.	4f#	4dd
8EJ	.	.	.
=8	=8	=8	=8
2F#	4B]	4.f#	4.cc#
.	4A#	.	.
.	.	8e	8cc#
2BB;	2B;	4d	4b
.	.	4d;	4b;
=9	=9	=9	=9
4D	4AnX	4d	4f#
4D	4A	4d	4f#
4GG	8GL	4d	4b
.	8F#J	.	.
4AA	4E	4c#	4a
=10	=10	=10	=10
2BB	8DL	4d	4a
.	8F#	.	.
.	8E	4d	4g#
.	8DJ	.	.
2AA;	2E;	2c#;	2a;
=11	=11	=11	=11
4GG	4G	4d	4b
4D	4F#	8dL	4a
.	.	8c#J	.
4E	4G	8BL	4gnX
.	.	8c#J	.
4F#	4A	4d	4f#
=12	=12	=12	=12
8GL	4B	4d	4.e
8E	.	.	.
8A	8.AL	4c#	.
8AAJ	.	.	8d
.	16GJk	.	.
2D;	2F#;	2d;	2d;
==	==	==	==
*-	*-	*-	*-
!!!YOR1: 371 vierstimmige Choralges&auml;nge von Johann Sebastian Bach, 
!!!YOR2: 4th ed. by Alfred D&ouml;rffel (Leipzig: Breitkopf und H&auml;rtel, 
!!!YOR2: c.1875). 178 pp. Plate "V.A.10".  reprint: J.S. Bach, 371 Four-Part 
!!!YOR4: Chorales (New York: Associated Music Publishers, Inc., c.1940).
!!!SMS: B&H, 4th ed, Alfred D&ouml;rffel, c.1875, plate V.A.10
!!!PC#2: 13 (Budapest/Imre, 1982)
!!!EED:  Craig Stuart Sapp
!!!EEV:  2009/05/22
